lib/brands/icons/gatsby.svg

<svg xmlns="http://www.w3.org/2000/svg" fill="none" aria-hidden="true" viewBox="0 0 48 48"><g id="gatsby-Icon"><path id="Vector" fill="#744C9E" d="M24 6C14.0589 6 6 14.0588 6 24C6 33.9412 14.0589 42 24 42C33.9412 42 42 33.9412 42 24C42 14.0588 33.9412 6 24 6ZM9.86775 24.1876L23.8123 38.1323C16.1552 38.0324 9.96752 31.8448 9.86775 24.1876ZM27.1635 37.7789L10.2211 20.8365C11.6577 14.5533 17.2813 9.86538 24 9.86538C28.6965 9.86538 32.8573 12.1566 35.4276 15.6815L33.4705 17.4083C31.3856 14.4183 27.9216 12.4615 24 12.4615C19.0071 12.4615 14.7552 15.633 13.1481 20.0712L27.9289 34.8519C31.5184 33.552 34.279 30.522 35.2036 26.7692H29.0769V24H35.5385V24H38.1346V24C38.1346 30.7187 33.4468 36.3423 27.1635 37.7789Z"/></g></svg>

<svg xmlns="http://www.w3.org/2000/svg" fill="none" aria-hidden="true" viewBox="0 0 48 48"><path fill="#744C9E" d="M24 6C14.059 6 6 14.059 6 24s8.059 18 18 18 18-8.059 18-18S33.941 6 24 6ZM9.868 24.188l13.944 13.944c-7.657-.1-13.844-6.287-13.944-13.944Zm17.295 13.59-16.942-16.94C11.658 14.553 17.281 9.865 24 9.865c4.697 0 8.857 2.292 11.428 5.816l-1.957 1.727A11.524 11.524 0 0 0 24 12.461c-4.993 0-9.245 3.172-10.852 7.61l14.78 14.78a11.561 11.561 0 0 0 7.276-8.082h-6.127V24h9.058c0 6.719-4.688 12.342-10.971 13.779Z"/></svg>
